X:15
T:Jour du Vivant
C:E. Daniel (1995)
M:6/4
L:1/4
K:F
FFG|A2cB2A|G2GcAF|[M:3/2]B2ABG2|[M:6/4]A3FFG|
A2cB2A|G2GcAF|[M:3/2]B2ABG2|[M:6/4]F2CD3|
EFGE2C|FGAGGC|ABcB2A|G3cAF|
B2ABG2|[M:6/4]A3cAF|[M:3/2]B2ABG2|[M:6/4]F3|]
